Newaita/actions/24/format-line-spacing-triple.svg

<svg height="24" viewBox="0 0 24 24" width="24" xmlns="http://www.w3.org/2000/svg"><g fill="#424242"><path d="m2.480469 5.148438h3.96875c.273437 0 .496093.222656.496093.496093 0 .273438-.222656.496094-.496093.496094h-3.96875c-.273438 0-.496094-.222656-.496094-.496094 0-.273437.222656-.496093.496094-.496093zm0 0"/><path d="m2.429688 5.148438h.101562c.246094 0 .445312.222656.445312.496093v12.898438c0 .277343-.199218.496093-.445312.496093h-.101562c-.246094 0-.445313-.21875-.445313-.496093v-12.898438c0-.273437.199219-.496093.445313-.496093zm0 0"/><path d="m2.480469 18.046875h3.96875c.273437 0 .496093.222656.496093.496094 0 .277343-.222656.496093-.496093.496093h-3.96875c-.273438 0-.496094-.21875-.496094-.496093 0-.273438.222656-.496094.496094-.496094zm0 0"/><path d="m7.441406 2.171875c-.824218 0-1.488281.664063-1.488281 1.488281v3.96875c0 .824219.664063 1.488282 1.488281 1.488282h12.898438c.828125 0 1.492187-.664063 1.492187-1.488282v-3.96875c0-.824218-.664062-1.488281-1.492187-1.488281zm.992188 1.984375h10.914062c.277344 0 .496094.222656.496094.496094v1.984375c0 .277343-.21875.496093-.496094.496093h-10.914062c-.273438 0-.496094-.21875-.496094-.496093v-1.984375c0-.273438.222656-.496094.496094-.496094zm0 0"/><path d="m7.441406 15.070312c-.824218 0-1.488281.664063-1.488281 1.488282v3.972656c0 .824219.664063 1.488281 1.488281 1.488281h12.898438c.828125 0 1.492187-.664062 1.492187-1.488281v-3.972656c0-.824219-.664062-1.488282-1.492187-1.488282zm.992188 1.984376h10.914062c.277344 0 .496094.222656.496094.496093v1.984375c0 .277344-.21875.496094-.496094.496094h-10.914062c-.273438 0-.496094-.21875-.496094-.496094v-1.984375c0-.273437.222656-.496093.496094-.496093zm0 0"/><path d="m2.480469 11.101562h.992187c.273438 0 .496094.222657.496094.496094v.992188c0 .273437-.222656.496094-.496094.496094h-.992187c-.273438 0-.496094-.222657-.496094-.496094v-.992188c0-.273437.222656-.496094.496094-.496094zm0 0"/></g></svg>

<svg xmlns="http://www.w3.org/2000/svg" xmlns:xlink="http://www.w3.org/1999/xlink" width="24px" height="24px" viewBox="0 0 24 24" version="1.1">
<g id="surface1">
     <defs>
  <style id="current-color-scheme" type="text/css">
   .ColorScheme-Text { color:#424242; } .ColorScheme-Highlight { color:#eeeeee; }
  </style>
 </defs>
<path style="fill:currentColor" class="ColorScheme-Text" d="M 2.480469 5.148438 L 6.449219 5.148438 C 6.722656 5.148438 6.945312 5.371094 6.945312 5.644531 C 6.945312 5.917969 6.722656 6.140625 6.449219 6.140625 L 2.480469 6.140625 C 2.207031 6.140625 1.984375 5.917969 1.984375 5.644531 C 1.984375 5.371094 2.207031 5.148438 2.480469 5.148438 Z M 2.480469 5.148438 "/>
     <defs>
  <style id="current-color-scheme" type="text/css">
   .ColorScheme-Text { color:#424242; } .ColorScheme-Highlight { color:#eeeeee; }
  </style>
 </defs>
<path style="fill:currentColor" class="ColorScheme-Text" d="M 2.429688 5.148438 L 2.53125 5.148438 C 2.777344 5.148438 2.976562 5.371094 2.976562 5.644531 L 2.976562 18.542969 C 2.976562 18.820312 2.777344 19.039062 2.53125 19.039062 L 2.429688 19.039062 C 2.183594 19.039062 1.984375 18.820312 1.984375 18.542969 L 1.984375 5.644531 C 1.984375 5.371094 2.183594 5.148438 2.429688 5.148438 Z M 2.429688 5.148438 "/>
     <defs>
  <style id="current-color-scheme" type="text/css">
   .ColorScheme-Text { color:#424242; } .ColorScheme-Highlight { color:#eeeeee; }
  </style>
 </defs>
<path style="fill:currentColor" class="ColorScheme-Text" d="M 2.480469 18.046875 L 6.449219 18.046875 C 6.722656 18.046875 6.945312 18.269531 6.945312 18.542969 C 6.945312 18.820312 6.722656 19.039062 6.449219 19.039062 L 2.480469 19.039062 C 2.207031 19.039062 1.984375 18.820312 1.984375 18.542969 C 1.984375 18.269531 2.207031 18.046875 2.480469 18.046875 Z M 2.480469 18.046875 "/>
     <defs>
  <style id="current-color-scheme" type="text/css">
   .ColorScheme-Text { color:#424242; } .ColorScheme-Highlight { color:#eeeeee; }
  </style>
 </defs>
<path style="fill:currentColor" class="ColorScheme-Text" d="M 7.441406 2.171875 C 6.617188 2.171875 5.953125 2.835938 5.953125 3.660156 L 5.953125 7.628906 C 5.953125 8.453125 6.617188 9.117188 7.441406 9.117188 L 20.339844 9.117188 C 21.167969 9.117188 21.832031 8.453125 21.832031 7.628906 L 21.832031 3.660156 C 21.832031 2.835938 21.167969 2.171875 20.339844 2.171875 Z M 8.433594 4.15625 L 19.347656 4.15625 C 19.625 4.15625 19.84375 4.378906 19.84375 4.652344 L 19.84375 6.636719 C 19.84375 6.914062 19.625 7.132812 19.347656 7.132812 L 8.433594 7.132812 C 8.160156 7.132812 7.9375 6.914062 7.9375 6.636719 L 7.9375 4.652344 C 7.9375 4.378906 8.160156 4.15625 8.433594 4.15625 Z M 8.433594 4.15625 "/>
     <defs>
  <style id="current-color-scheme" type="text/css">
   .ColorScheme-Text { color:#424242; } .ColorScheme-Highlight { color:#eeeeee; }
  </style>
 </defs>
<path style="fill:currentColor" class="ColorScheme-Text" d="M 7.441406 15.070312 C 6.617188 15.070312 5.953125 15.734375 5.953125 16.558594 L 5.953125 20.53125 C 5.953125 21.355469 6.617188 22.019531 7.441406 22.019531 L 20.339844 22.019531 C 21.167969 22.019531 21.832031 21.355469 21.832031 20.53125 L 21.832031 16.558594 C 21.832031 15.734375 21.167969 15.070312 20.339844 15.070312 Z M 8.433594 17.054688 L 19.347656 17.054688 C 19.625 17.054688 19.84375 17.277344 19.84375 17.550781 L 19.84375 19.535156 C 19.84375 19.8125 19.625 20.03125 19.347656 20.03125 L 8.433594 20.03125 C 8.160156 20.03125 7.9375 19.8125 7.9375 19.535156 L 7.9375 17.550781 C 7.9375 17.277344 8.160156 17.054688 8.433594 17.054688 Z M 8.433594 17.054688 "/>
     <defs>
  <style id="current-color-scheme" type="text/css">
   .ColorScheme-Text { color:#424242; } .ColorScheme-Highlight { color:#eeeeee; }
  </style>
 </defs>
<path style="fill:currentColor" class="ColorScheme-Text" d="M 2.480469 11.101562 L 3.472656 11.101562 C 3.746094 11.101562 3.96875 11.324219 3.96875 11.597656 L 3.96875 12.589844 C 3.96875 12.863281 3.746094 13.085938 3.472656 13.085938 L 2.480469 13.085938 C 2.207031 13.085938 1.984375 12.863281 1.984375 12.589844 L 1.984375 11.597656 C 1.984375 11.324219 2.207031 11.101562 2.480469 11.101562 Z M 2.480469 11.101562 "/>
</g>
</svg>
